static/images/clients/logo-loading-cell.svg

<svg width="256" height="166" viewBox="0 0 256 166" fill="none" xmlns="http://www.w3.org/2000/svg">
<rect opacity="0.1" width="256" height="166" fill="#95BCD1"/>
<path fill-rule="evenodd" clip-rule="evenodd" d="M83.9413 83.1278H74.6825V66.993H70V87.6269H83.9413V83.1278Z" fill="#111111"/>
<path fill-rule="evenodd" clip-rule="evenodd" d="M93.9886 83.4863C92.9553 83.4863 92.01 83.0956 91.3264 82.3869C90.6216 81.655 90.2335 80.6154 90.2339 79.4586C90.2335 78.2746 90.638 77.2178 91.3722 76.483C92.0487 75.8059 92.9747 75.4331 93.9817 75.4331C93.9863 75.4331 93.9914 75.4331 93.9967 75.4331C95.001 75.4331 95.9262 75.8055 96.6018 76.4813C97.3375 77.2171 97.7425 78.2746 97.7429 79.4597C97.7421 81.8305 96.1991 83.4863 93.9902 83.4863H93.9886ZM102.469 79.4597C102.467 74.6778 98.7424 70.9314 93.9886 70.9307C89.2332 70.931 85.5081 74.6765 85.5081 79.4575C85.5081 84.3178 89.1542 87.9837 93.9899 87.9846C98.8222 87.9837 102.467 84.3191 102.469 79.4597Z" fill="#111111"/>
<path fill-rule="evenodd" clip-rule="evenodd" d="M109.125 79.458C109.124 78.265 109.528 77.2039 110.261 76.4702C110.93 75.8009 111.847 75.4324 112.846 75.4324C112.851 75.4324 112.856 75.4324 112.861 75.4324C113.858 75.4324 114.774 75.8005 115.442 76.4691C116.176 77.2032 116.581 78.2654 116.581 79.4591C116.581 81.83 115.048 83.4862 112.854 83.4862C111.823 83.4862 110.882 83.0959 110.205 82.3871C109.498 81.6469 109.124 80.6338 109.125 79.458ZM116.577 85.9899V87.6275H121.26V71.287H116.577V72.9821C115.399 71.6523 113.767 70.9305 111.898 70.9302C107.622 70.9305 104.399 74.5966 104.399 79.4572C104.399 84.3975 107.563 87.9837 111.922 87.9847C113.784 87.9841 115.407 87.2822 116.577 85.9899Z" fill="#111111"/>
<path fill-rule="evenodd" clip-rule="evenodd" d="M179.979 82.2567C179.303 82.9585 178.36 83.3451 177.324 83.3451H177.323C176.294 83.3451 175.354 82.9578 174.673 82.2541C173.977 81.5334 173.594 80.5155 173.595 79.3878C173.594 78.2346 173.992 77.201 174.716 76.4767C175.389 75.8028 176.312 75.4321 177.316 75.4321C177.32 75.4321 177.325 75.4321 177.331 75.4321C178.332 75.4321 179.254 75.8025 179.927 76.4756C180.651 77.2006 181.051 78.235 181.051 79.3889C181.051 80.5209 180.67 81.5394 179.979 82.2567ZM181.047 71.2867V72.9782C179.868 71.6509 178.235 70.9299 176.367 70.9297L176.367 70.9299C172.092 70.9302 168.868 74.566 168.868 79.3866C168.868 84.2071 172.103 87.8432 176.391 87.844C178.253 87.8432 179.877 87.1425 181.047 85.8524V92.089H159.023V96.551H185.73V71.2867H181.047Z" fill="#111111"/>
<path fill-rule="evenodd" clip-rule="evenodd" d="M70 96.5389H74.4511V92.0884H70V96.5389Z" fill="#111111"/>
<path fill-rule="evenodd" clip-rule="evenodd" d="M78.9023 96.5393H87.8046V92.0887H78.9023V96.5393Z" fill="#111111"/>
<path fill-rule="evenodd" clip-rule="evenodd" d="M92.2557 96.5393H105.609V92.0887H92.2557V96.5393Z" fill="#111111"/>
<path fill-rule="evenodd" clip-rule="evenodd" d="M132.316 96.5393H154.572V92.0887H132.316V96.5393Z" fill="#111111"/>
<path fill-rule="evenodd" clip-rule="evenodd" d="M110.06 96.5393H127.865V92.0887H110.06V96.5393Z" fill="#111111"/>
<path fill-rule="evenodd" clip-rule="evenodd" d="M132.112 83.4858C131.081 83.4858 130.14 83.0954 129.463 82.3867C128.756 81.6465 128.382 80.6335 128.383 79.4576C128.382 78.265 128.786 77.204 129.519 76.4702C130.188 75.801 131.105 75.4325 132.103 75.4325C132.105 75.4325 132.108 75.4325 132.111 75.4325L132.111 75.4321C132.114 75.4321 132.117 75.4321 132.117 75.4321C133.116 75.4321 134.032 75.8003 134.7 76.4688C135.434 77.2032 135.839 78.265 135.839 79.4587C135.839 81.8296 134.306 83.4858 132.112 83.4858ZM135.773 85.9895V87.627H140.456V64.9895H135.773V72.9813C134.595 71.6521 132.963 70.9303 131.093 70.93C126.818 70.9303 123.594 74.5963 123.594 79.4569C123.594 84.397 126.758 87.9832 131.117 87.9842C132.979 87.9836 134.603 87.2817 135.773 85.9895Z" fill="#111111"/>
<path fill-rule="evenodd" clip-rule="evenodd" d="M161.769 87.6274H166.452V71.2869H151.322V87.6274H156.005V75.7947H161.769V87.6274Z" fill="#111111"/>
<path fill-rule="evenodd" clip-rule="evenodd" d="M143.571 87.6274H148.254V71.2869H143.571V87.6274Z" fill="#111111"/>
<path fill-rule="evenodd" clip-rule="evenodd" d="M145.975 69.7998C147.573 69.7998 148.868 68.5014 148.868 66.8999C148.868 65.2984 147.573 64 145.975 64C144.377 64 143.082 65.2984 143.082 66.8999C143.082 68.5014 144.377 69.7998 145.975 69.7998Z" fill="#111111"/>
</svg>

<svg xmlns="http://www.w3.org/2000/svg" fill="none" viewBox="0 0 256 166">
  <path fill="#95BCD1" d="M0 0h256v166H0z" opacity=".1"/>
  <path fill="#111" fill-rule="evenodd" d="M84 83.1h-9.3V67H70v20.6h14v-4.5zM94 83.5c-1 0-2-.4-2.7-1.1-.7-.7-1-1.8-1-3 0-1.1.3-2.2 1-3 .7-.6 1.7-1 2.7-1 1 0 2 .4 2.6 1 .7.8 1.1 1.9 1.1 3 0 2.4-1.5 4-3.7 4zm8.5-4c0-4.8-3.8-8.6-8.5-8.6a8.4 8.4 0 00-8.5 8.6c0 4.8 3.7 8.5 8.5 8.5s8.5-3.7 8.5-8.5zM109.1 79.5c0-1.2.4-2.3 1.2-3 .6-.7 1.5-1 2.5-1s2 .3 2.6 1c.8.7 1.2 1.8 1.2 3 0 2.3-1.6 4-3.7 4-1 0-2-.4-2.7-1.1-.7-.8-1-1.8-1-3zm7.5 6.5v1.6h4.7V71.3h-4.7V73a6.1 6.1 0 00-4.7-2c-4.3 0-7.5 3.6-7.5 8.5s3.2 8.5 7.5 8.5c1.9 0 3.5-.7 4.7-2zM180 82.3c-.7.7-1.6 1-2.7 1-1 0-2-.3-2.6-1a4 4 0 01-1.1-3 4 4 0 011.1-2.8c.7-.7 1.6-1 2.6-1s2 .3 2.6 1a4 4 0 011.2 2.9 4 4 0 01-1.1 2.9zm1-11V73a6.1 6.1 0 00-4.6-2c-4.3 0-7.5 3.6-7.5 8.4 0 4.8 3.2 8.4 7.5 8.4 1.9 0 3.5-.7 4.6-2v6.3h-22v4.5h26.7V71.3H181zM70 96.5h4.5v-4.4H70v4.4zM78.9 96.5h8.9v-4.4h-8.9v4.4zM92.3 96.5h13.3v-4.4H92.3v4.4zM132.3 96.5h22.3v-4.4h-22.3v4.4zM110 96.5H128v-4.4H110v4.4zM132.1 83.5c-1 0-2-.4-2.6-1.1-.7-.8-1.1-1.8-1.1-3 0-1.1.4-2.2 1.1-3 .7-.6 1.6-1 2.6-1s2 .4 2.6 1c.7.8 1.1 1.9 1.1 3 0 2.4-1.5 4-3.7 4zm3.7 2.5v1.6h4.7V65h-4.7v8a6.1 6.1 0 00-4.7-2c-4.3 0-7.5 3.6-7.5 8.5s3.2 8.5 7.5 8.5c1.9 0 3.5-.7 4.7-2z" clip-rule="evenodd"/>
  <path fill="#111" fill-rule="evenodd" d="M161.8 87.6h4.7V71.3h-15.2v16.3h4.7V75.8h5.8v11.8zM143.6 87.6h4.7V71.3h-4.7v16.3zM146 69.8a2.9 2.9 0 100-5.8 2.9 2.9 0 000 5.8z" clip-rule="evenodd"/>
</svg>
